X: 301
T: I'M MARRIED ONE YEAR TODAY
T: Taim posda bliadhain an dhiudh
B: O'Neill's 301
M: 6/8
L: 1/8
Z: 1999 by John Chambers <jc@trillian.mit.edu>
N: "With spirit"
N: "Collected by F.O'Neill"
K:G
(d/>c/) \
|BAB GAB|c3 B2A|Bcd dc2B|A3- A2d/c/|
|cBAB GAB|c3 B2A|BdB A2G|G3- G2||
||G/A/ \
|Bcd .d.e.f|g3 f2e|a2f e2d|d3- d2c|
|cBAB GAB|c3 B2A|BdB A2G|G3- G2||
